!!!SOCIAL_FUNCTION:	social dance with hunting dance
!!!PDT:	1956
!!!OTL: No_188_Snake_Dance_Song_(a).krn
!!!LANG: Non-Tone
!!!LING_GROUP: Muskogean
!!!REG: Florida
**kern
*staff1
=1-
*clefF4
*k[b-e-a-]
*M2/4
4r
8.B-\L
16B-\Jk
=2
4.B-\
8B-\
=3||
*M3/8
4A-\
16G\LL
16E-\JJ
=4!|:
*M2/4
8.B-\L
16A-\Jk
8G\L
16E-\L
16E-\JJ
=5||
*M3/8
4E-\
8E-\
=6||
*M2/4
8.G\L
16A-\Jk
8G\L
16E-\L
16E-\JJ
=7
4E-\
8E-\
8r
=8
4D-\
8D-\L
16D-\Jk
16r
=9
4E-\
4E-\
=10:|!
*M3/4
[4B-\
(8B-\L]
16E-\Jk)
16r
4B-\
=11
[4B-\
(8B-\L]
16E-\Jk)
16r
4B-\
=12||
*M2/4
2r
=13
4r
8.B-\L
16B-\Jk
=14
4.B-\
8B-\
=15||
*M3/4
16A-\LL
16F\
16E-\
16B-\JJ
16A-\LK
8.F\J
12F\L
12E-\
12E-\J
=16||
*M2/4
2E-\
=17
4E-\
4E-\
=18
4B-\
16A-\LL
16F\J
8B-\J
=19
8B-\L
8A-\J
8r
8E-\
=20||
*M3/4
[4E-\
8.E-\L]
16A-\Jk
12F\L
12E-\
12E-\J
=21||
*M2/4
2E-\
=22
2D-\
=23
4D-\
8D-\
8r
=24
2E-\
=25||
*M3/4
2E-\
12A-\L
12F\
12E-\J
=26
2E-\
8.E-/L
16C/Jk
=27
2E-\
12F\L
12E-\
12E-\J
=28||
*M2/4
2E-\
=29
2D-\
=30
4D-\
8D-\
8r
=31||
*M3/4
2E-\
4E-\
==
*-
